img/logo.svg

<svg width="68" height="26" viewBox="0 0 68 26" fill="none" xmlns="http://www.w3.org/2000/svg">
<path d="M8.99 2.35C7.23 2.35 5.68 2.72 4.34 3.46C3.02 4.18 2 5.18 1.28 6.46C0.56 7.72 0.2 9.15 0.2 10.75C0.2 12.31 0.54 13.74 1.22 15.04C1.92 16.34 2.92 17.37 4.22 18.13C5.54 18.89 7.08 19.27 8.84 19.27C9.68 19.27 10.49 19.18 11.27 19C12.05 18.82 12.92 18.54 13.88 18.16L14.3 17.98L13.34 15.61L12.92 15.79C11.52 16.31 10.33 16.57 9.35 16.57C7.43 16.57 5.92 16.04 4.82 14.98C3.74 13.9 3.2 12.48 3.2 10.72C3.2 9.66 3.43 8.69 3.89 7.81C4.35 6.93 5.01 6.24 5.87 5.74C6.75 5.22 7.77 4.96 8.93 4.96C9.53 4.96 10.1 5 10.64 5.08C11.18 5.14 11.85 5.32 12.65 5.62L13.1 5.77L14.09 3.46L13.61 3.28C12.13 2.66 10.59 2.35 8.99 2.35ZM22.0756 19.27C23.2556 19.27 24.2956 19.02 25.1956 18.52C26.0956 18 26.7856 17.29 27.2656 16.39C27.7656 15.49 28.0156 14.45 28.0156 13.27C28.0156 11.45 27.4756 10 26.3956 8.92C25.3356 7.84 23.9056 7.3 22.1056 7.3C20.3056 7.3 18.8656 7.84 17.7856 8.92C16.7056 9.98 16.1656 11.44 16.1656 13.3C16.1656 14.46 16.4056 15.49 16.8856 16.39C17.3856 17.29 18.0756 18 18.9556 18.52C19.8556 19.02 20.8956 19.27 22.0756 19.27ZM22.0756 9.55C22.9156 9.55 23.6156 9.88 24.1756 10.54C24.7556 11.18 25.0456 12.1 25.0456 13.3C25.0456 14.48 24.7656 15.39 24.2056 16.03C23.6656 16.67 22.9556 16.99 22.0756 16.99C21.2356 16.99 20.5356 16.67 19.9756 16.03C19.4156 15.37 19.1356 14.46 19.1356 13.3C19.1356 12.12 19.4156 11.2 19.9756 10.54C20.5556 9.88 21.2556 9.55 22.0756 9.55ZM29.8363 10H35.2062L29.8363 17.53V19H39.2562V16.57H33.6462L39.0462 9.01V7.48H29.8363V10ZM45.2225 19.09L42.6125 25.18H45.8225L52.8725 7.48H49.8725L46.7825 16.33L43.3325 7.48H40.0625L45.2225 19.09ZM67.5472 6.85C67.5472 5.97 67.3872 5.16 67.0672 4.42C66.7672 3.68 66.3272 3.03 65.7472 2.47C65.1872 1.95 64.5372 1.55 63.7972 1.27C63.0572 0.990001 62.2572 0.850001 61.3972 0.850001C60.5172 0.850001 59.6972 0.990001 58.9372 1.27C58.1972 1.55 57.5572 1.95 57.0172 2.47C56.4372 3.03 55.9872 3.68 55.6672 4.42C55.3672 5.16 55.2172 5.97 55.2172 6.85C55.2172 7.75 55.3672 8.57 55.6672 9.31C55.9872 10.05 56.4372 10.69 57.0172 11.23C57.5572 11.77 58.1972 12.18 58.9372 12.46C59.6972 12.74 60.5172 12.88 61.3972 12.88C62.2572 12.88 63.0572 12.74 63.7972 12.46C64.5372 12.18 65.1872 11.77 65.7472 11.23C66.3272 10.69 66.7672 10.05 67.0672 9.31C67.3872 8.57 67.5472 7.75 67.5472 6.85ZM66.2272 6.85C66.2272 8.35 65.7872 9.53 64.9072 10.39C64.0272 11.23 62.8572 11.65 61.3972 11.65C59.9372 11.65 58.7672 11.23 57.8872 10.39C57.0072 9.53 56.5672 8.35 56.5672 6.85C56.5672 5.41 57.0172 4.24 57.9172 3.34C58.7772 2.52 59.9372 2.11 61.3972 2.11C62.8572 2.11 64.0172 2.52 64.8772 3.34C65.7772 4.24 66.2272 5.41 66.2272 6.85ZM63.8872 5.56C63.8872 4.98 63.6872 4.51 63.2872 4.15C62.8872 3.79 62.3772 3.61 61.7572 3.61H59.2072V10H60.2872V7.57H61.6072L62.7472 10H63.9172L62.6272 7.36C63.4672 7.04 63.8872 6.44 63.8872 5.56ZM62.8672 5.59C62.8672 5.97 62.7272 6.25 62.4472 6.43C62.1672 6.61 61.8272 6.7 61.4272 6.7H60.2872V4.6H61.7272C62.0872 4.6 62.3672 4.69 62.5672 4.87C62.7672 5.05 62.8672 5.29 62.8672 5.59Z" fill="#17183B"/>
</svg>

<svg width="68" height="26" fill="none" xmlns="http://www.w3.org/2000/svg"><path d="M8.99 2.35c-1.76 0-3.31.37-4.65 1.11-1.32.72-2.34 1.72-3.06 3C.56 7.72.2 9.15.2 10.75c0 1.56.34 2.99 1.02 4.29.7 1.3 1.7 2.33 3 3.09 1.32.76 2.86 1.14 4.62 1.14.84 0 1.65-.09 2.43-.27.78-.18 1.65-.46 2.61-.84l.42-.18-.96-2.37-.42.18c-1.4.52-2.59.78-3.57.78-1.92 0-3.43-.53-4.53-1.59-1.08-1.08-1.62-2.5-1.62-4.26 0-1.06.23-2.03.69-2.91a5.06 5.06 0 011.98-2.07c.88-.52 1.9-.78 3.06-.78.6 0 1.17.04 1.71.12.54.06 1.21.24 2.01.54l.45.15.99-2.31-.48-.18c-1.48-.62-3.02-.93-4.62-.93zm13.086 16.92c1.18 0 2.22-.25 3.12-.75.9-.52 1.59-1.23 2.07-2.13.5-.9.75-1.94.75-3.12 0-1.82-.54-3.27-1.62-4.35-1.06-1.08-2.49-1.62-4.29-1.62-1.8 0-3.24.54-4.32 1.62-1.08 1.06-1.62 2.52-1.62 4.38 0 1.16.24 2.19.72 3.09.5.9 1.19 1.61 2.07 2.13.9.5 1.94.75 3.12.75zm0-9.72c.84 0 1.54.33 2.1.99.58.64.87 1.56.87 2.76 0 1.18-.28 2.09-.84 2.73-.54.64-1.25.96-2.13.96-.84 0-1.54-.32-2.1-.96-.56-.66-.84-1.57-.84-2.73 0-1.18.28-2.1.84-2.76.58-.66 1.28-.99 2.1-.99zm7.76.45h5.37l-5.37 7.53V19h9.42v-2.43h-5.61l5.4-7.56V7.48h-9.21V10zm15.386 9.09l-2.61 6.09h3.21l7.05-17.7h-3l-3.09 8.85-3.45-8.85h-3.27l5.16 11.61zM67.547 6.85c0-.88-.16-1.69-.48-2.43-.3-.74-.74-1.39-1.32-1.95-.56-.52-1.21-.92-1.95-1.2-.74-.28-1.54-.42-2.4-.42-.88 0-1.7.14-2.46.42-.74.28-1.38.68-1.92 1.2-.58.56-1.03 1.21-1.35 1.95-.3.74-.45 1.55-.45 2.43 0 .9.15 1.72.45 2.46.32.74.77 1.38 1.35 1.92.54.54 1.18.95 1.92 1.23.76.28 1.58.42 2.46.42.86 0 1.66-.14 2.4-.42.74-.28 1.39-.69 1.95-1.23.58-.54 1.02-1.18 1.32-1.92.32-.74.48-1.56.48-2.46zm-1.32 0c0 1.5-.44 2.68-1.32 3.54-.88.84-2.05 1.26-3.51 1.26s-2.63-.42-3.51-1.26c-.88-.86-1.32-2.04-1.32-3.54 0-1.44.45-2.61 1.35-3.51.86-.82 2.02-1.23 3.48-1.23s2.62.41 3.48 1.23c.9.9 1.35 2.07 1.35 3.51zm-2.34-1.29c0-.58-.2-1.05-.6-1.41-.4-.36-.91-.54-1.53-.54h-2.55V10h1.08V7.57h1.32l1.14 2.43h1.17l-1.29-2.64c.84-.32 1.26-.92 1.26-1.8zm-1.02.03c0 .38-.14.66-.42.84-.28.18-.62.27-1.02.27h-1.14V4.6h1.44c.36 0 .64.09.84.27.2.18.3.42.3.72z" fill="#17183B"/></svg>
